X: 231452
T: When the Cock Crows It is Day (B)
T: T\'a an Coileach ag F\'ogairt an Lae
S: B.Breathnach: "Ceol Rince na hEireann" II/68(ii) 
Z: B.Black
L: 1/8
M: 6/8
R: jig
K: G
D|GAB BAG|d3 d2B|GAB BAG|A3 A2D|
GAB BAG|Bcd ef/g/e|dBG AFD|G3 G2 :|
B/d/|gdd gdd|ccc c2d|gdd gdd|AAA ABd|
gdd gdd|Bcd ef/g/e|dBG AFD|G3 G2 :|
